X: 14
T: The Frieze Breeches
R: jig
M: 6/8
L: 1/8
K: Dmaj
A4-(3AGE||:FEF DED | D d/d/d cAG | (3ABc A GAG | EFA GED |
EFD DED | D d/d/d cAG | ~E3 AGE |1 EDD D2E :|2 DDD D2A |
|:d2e ~f3 | ded cAG | (3ABc A GAG | EFA GED | Ade ~f3 |
|1 ded eAG | ~E3 AGE | EDD D2A |2 ged cAG | ~E3 AGE | EDD D2A |
|:E/F/G/A/B Bc2 | cAd cAG | ABc dde | fed cAG |
E/F/GA B=cc | cAd cAG | ~E3 AGE |1 EDD D2G :|2 EDD D2A |
|:d2e f2g | agf e=cA | A=cc e^cc | acc ecA | ~d3 fdf |
afd ece | (3fga f gec |1 edd d2A :|2 EDD D2A |
|: agf gfe | fed cAG | ~G2A GAG | EFA ~G2E |
agf gfe | ~f2d cAG | EFG AGE |1 EDD D2e :|2 EDD D2G |
|: (5EFGAB BcB | ~E3 ~c3 | ~E3 ~d3 | ~E3 ~d3 |
EcE cEc | Bdd cAG | EFG AGE |1 EDD D2A :|2 EDD D2E |
(4=FEDE (4^FGAB | =cAd ^cAG | ABc d2e | ged cAG |
(4FEDE (4FGAB | =cAd ^cAG | AGE ED=C | EDD D2E |


Tune 34	Setting 12436

